X:1
T:Seattle, 10.9.11.10 D
T:Seattle, 10.9.11.10 D
T:Elisha Albright Hoffman, 1896
T:Public Domain Courtesy of the Cyber Hymnal™
C:Elisha Albright Hoffman, 1896
Z:Public Domain
Z:Courtesy of the Cyber Hymnal™
%%score ( 1 2 ) ( 3 4 )
L:1/8
Q:1/4=105
M:9/8
K:Ab
V:1 treble 
V:2 treble 
V:3 bass 
V:4 bass 
V:1
 [CE][=B,=D][CE] | [DF]3 [CE]3 [DG][DF][DG] | [CA]3 [CA]3 [Ec][DB][CA] | %3
 [Ec]3 [Ec]3 [=DB][DF][DB] | (A3 G3) [CE][=B,=D][CE] | [DF]3 [CE]2 [CA] [EA][EB][Ec] | %6
 [Fd]3 [DF]3 [FB][Fc][Fd] | [Ec]3 [EA]2 [EA] [DG][DF][DE] | [CA]6 [Ae][Ae][Ae] | %9
 [Ae]3 [Ac]3 [Ac][Ac][Ad] | [Ac]3 [EA]3 [Ae][Ae][Af] | [Ae]3 [Ac]3 [Ac][AB]A | %12
 [Ge]6 [CE][=B,=D][CE] | [DF]3 [CE]2 [CA] [EA][EB][Ec] | [Fd]3 [DF]3 [FB][Fc][Fd] | %15
 [Ec]3 [EA]2 [EA] [DG][DF][DE] | [CA]6 |] %17
V:2
 x3 | x9 | x9 | x9 | =D6 x3 | x9 | x9 | x9 | x9 | x9 | x9 | x8 A | x9 | x9 | x9 | x9 | x6 |] %17
V:3
 [A,,A,][A,,A,][A,,A,] | [A,,A,]3 [A,,A,]3 [E,B,][E,A,][E,B,] | %2
 [A,,A,]3 [A,,A,]3 [A,,A,][A,,A,][A,,A,] | [A,,A,]3 [A,,A,]3 [B,,F,][B,,B,][B,,B,] | %4
 [E,B,]6 [A,,A,][A,,A,][A,,A,] | [A,,A,]3 [A,,A,]2 [A,,A,] [C,A,][E,G,]A, | %6
 [D,A,]3 [D,A,]3 [D,A,][D,A,][D,A,] | [E,A,]3 [E,C]2 [E,C] [E,B,][E,A,][E,G,] | %8
 [A,,A,]6 [A,C][A,C][A,D] | [A,C]3 [A,E]3 [A,E][A,E][A,F] | [A,E]3 [A,C]3 [A,C][A,C][A,D] | %11
 [A,C]3 [A,E]3 [A,E][A,D][A,C] | [E,B,]6 [A,,A,][A,,A,][A,,A,] | %13
 [A,,A,]3 [A,,A,]2 [A,,A,] [C,A,][E,G,]A, | [D,A,]3 [D,A,]3 [D,A,][D,A,][D,A,] | %15
 [E,A,]3 [E,C]2 [E,C] [E,B,][E,A,][E,G,] | [A,,A,]6 |] %17
V:4
 x3 | x9 | x9 | x9 | x9 | x8 A, | x9 | x9 | x9 | x9 | x9 | x9 | x9 | x8 A, | x9 | x9 | x6 |] %17

